Simply-Blue-Circles/scalable/apps/preferences-desktop-icons.svg

<svg xmlns="http://www.w3.org/2000/svg" width="48" height="48" viewBox="0 0 12.7 12.7"><path d="M6.35.06a6.29 6.29 0 0 0-6.29 6.3 6.29 6.29 0 0 0 6.3 6.28 6.29 6.29 0 0 0 6.28-6.29A6.29 6.29 0 0 0 6.35.06zm-.02.93l.01.01a5.4 5.4 0 0 1 5.4 5.4 5.4 5.4 0 0 1-5.4 5.41 5.4 5.4 0 0 1-5.41-5.4A5.4 5.4 0 0 1 6.33.99zm-.93.6a.32.32 0 0 0-.32.31v1.91c0 .18.14.32.32.32h1.9c.18 0 .32-.14.32-.32v-1.9a.32.32 0 0 0-.32-.32zm-1.3.25a5.05 5.05 0 0 0-.09.04 5.05 5.05 0 0 0-.43.26 5.05 5.05 0 0 0-.41.3 5.05 5.05 0 0 0-.38.33 5.05 5.05 0 0 0-.34.37 5.05 5.05 0 0 0-.3.4 5.05 5.05 0 0 0-.27.43 5.05 5.05 0 0 0-.06.12c.03.01.05.04.08.04h1.91c.18 0 .32-.14.32-.32v-1.9c0-.03-.02-.04-.03-.07zm4.49.03c0 .02-.02.02-.02.03v1.91c0 .18.14.32.32.32h1.9l.05-.02a5.05 5.05 0 0 0 0-.01 5.05 5.05 0 0 0-.26-.44 5.05 5.05 0 0 0-.3-.41 5.05 5.05 0 0 0-.33-.38 5.05 5.05 0 0 0-.37-.35 5.05 5.05 0 0 0-.4-.3 5.05 5.05 0 0 0-.43-.27 5.05 5.05 0 0 0-.16-.08zM1.9 5.08a.32.32 0 0 0-.31.32v1.9c0 .18.14.32.31.32h1.91c.18 0 .32-.14.32-.32V5.4a.32.32 0 0 0-.32-.32zm3.5 0a.32.32 0 0 0-.32.32v1.9c0 .18.14.32.32.32h1.9c.18 0 .32-.14.32-.32V5.4a.32.32 0 0 0-.32-.32zm3.49 0a.32.32 0 0 0-.32.32v1.9c0 .18.14.32.32.32h1.9c.18 0 .32-.14.32-.32V5.4a.32.32 0 0 0-.31-.32zM1.9 8.58c-.04 0-.07.02-.11.04a5.05 5.05 0 0 0 .03.08 5.05 5.05 0 0 0 .26.43 5.05 5.05 0 0 0 .29.41 5.05 5.05 0 0 0 .33.38 5.05 5.05 0 0 0 .37.35 5.05 5.05 0 0 0 .4.3 5.05 5.05 0 0 0 .44.26 5.05 5.05 0 0 0 .17.09c.02-.04.05-.08.05-.12V8.89a.32.32 0 0 0-.32-.32zm3.5 0a.32.32 0 0 0-.32.31v1.9c0 .18.14.32.32.32h1.9c.18 0 .32-.14.32-.31V8.89a.32.32 0 0 0-.32-.32zm3.49 0a.32.32 0 0 0-.32.31v1.9c0 .05.03.07.05.11a5.05 5.05 0 0 0 .01 0 5.05 5.05 0 0 0 .44-.26 5.05 5.05 0 0 0 .4-.3 5.05 5.05 0 0 0 .39-.33 5.05 5.05 0 0 0 .34-.37 5.05 5.05 0 0 0 .3-.4 5.05 5.05 0 0 0 .27-.43 5.05 5.05 0 0 0 .1-.2l-.07-.04z" fill="#2c89a0"/></svg>

<?xml version="1.0" encoding="UTF-8" standalone="no"?>
<svg
   xmlns:dc="http://purl.org/dc/elements/1.1/"
   xmlns:cc="http://creativecommons.org/ns#"
   xmlns:rdf="http://www.w3.org/1999/02/22-rdf-syntax-ns#"
   xmlns:svg="http://www.w3.org/2000/svg"
   xmlns="http://www.w3.org/2000/svg"
   xmlns:sodipodi="http://sodipodi.sourceforge.net/DTD/sodipodi-0.dtd"
   xmlns:inkscape="http://www.inkscape.org/namespaces/inkscape"
   width="48"
   height="48"
   viewBox="0 0 12.7 12.7"
   version="1.1"
   id="svg4"
   sodipodi:docname="preferences-desktop-icons.svg"
   inkscape:version="0.92.4 (5da689c313, 2019-01-14)">
  <metadata
     id="metadata10">
    <rdf:RDF>
      <cc:Work
         rdf:about="">
        <dc:format>image/svg+xml</dc:format>
        <dc:type
           rdf:resource="http://purl.org/dc/dcmitype/StillImage" />
        <dc:title></dc:title>
      </cc:Work>
    </rdf:RDF>
  </metadata>
  <defs
     id="defs8" />
  <sodipodi:namedview
     pagecolor="#ffffff"
     bordercolor="#666666"
     borderopacity="1"
     objecttolerance="10"
     gridtolerance="10"
     guidetolerance="10"
     inkscape:pageopacity="0"
     inkscape:pageshadow="2"
     inkscape:window-width="1087"
     inkscape:window-height="480"
     id="namedview6"
     showgrid="false"
     inkscape:zoom="4.9166667"
     inkscape:cx="2.1355932"
     inkscape:cy="24"
     inkscape:window-x="0"
     inkscape:window-y="25"
     inkscape:window-maximized="0"
     inkscape:current-layer="svg4" />
  <path
     d="M 6.35,0.06 A 6.29,6.29 0 0 0 0.06,6.36 6.29,6.29 0 0 0 6.36,12.64 6.29,6.29 0 0 0 12.64,6.35 6.29,6.29 0 0 0 6.35,0.06 Z M 6.33,0.99 6.34,1 a 5.4,5.4 0 0 1 5.4,5.4 5.4,5.4 0 0 1 -5.4,5.41 5.4,5.4 0 0 1 -5.41,-5.4 5.4,5.4 0 0 1 5.4,-5.42 z M 5.4,1.59 A 0.32,0.32 0 0 0 5.08,1.9 v 1.91 c 0,0.18 0.14,0.32 0.32,0.32 h 1.9 c 0.18,0 0.32,-0.14 0.32,-0.32 V 1.91 A 0.32,0.32 0 0 0 7.3,1.59 Z M 4.1,1.84 A 5.05,5.05 0 0 0 4.01,1.88 5.05,5.05 0 0 0 3.58,2.14 5.05,5.05 0 0 0 3.17,2.44 5.05,5.05 0 0 0 2.79,2.77 5.05,5.05 0 0 0 2.45,3.14 5.05,5.05 0 0 0 2.15,3.54 5.05,5.05 0 0 0 1.88,3.97 5.05,5.05 0 0 0 1.82,4.09 C 1.85,4.1 1.87,4.13 1.9,4.13 h 1.91 c 0.18,0 0.32,-0.14 0.32,-0.32 V 1.91 C 4.13,1.88 4.11,1.87 4.1,1.84 Z m 4.49,0.03 c 0,0.02 -0.02,0.02 -0.02,0.03 v 1.91 c 0,0.18 0.14,0.32 0.32,0.32 h 1.9 L 10.84,4.11 A 5.05,5.05 0 0 0 10.84,4.1 5.05,5.05 0 0 0 10.58,3.66 5.05,5.05 0 0 0 10.28,3.25 5.05,5.05 0 0 0 9.95,2.87 5.05,5.05 0 0 0 9.58,2.52 5.05,5.05 0 0 0 9.18,2.22 5.05,5.05 0 0 0 8.75,1.95 5.05,5.05 0 0 0 8.59,1.87 Z M 1.9,5.08 A 0.32,0.32 0 0 0 1.59,5.4 v 1.9 c 0,0.18 0.14,0.32 0.31,0.32 H 3.81 C 3.99,7.62 4.13,7.48 4.13,7.3 V 5.4 A 0.32,0.32 0 0 0 3.81,5.08 Z m 3.5,0 A 0.32,0.32 0 0 0 5.08,5.4 v 1.9 c 0,0.18 0.14,0.32 0.32,0.32 H 7.3 C 7.48,7.62 7.62,7.48 7.62,7.3 V 5.4 A 0.32,0.32 0 0 0 7.3,5.08 Z m 3.49,0 A 0.32,0.32 0 0 0 8.57,5.4 v 1.9 c 0,0.18 0.14,0.32 0.32,0.32 h 1.9 c 0.18,0 0.32,-0.14 0.32,-0.32 V 5.4 A 0.32,0.32 0 0 0 10.8,5.08 Z M 1.9,8.58 C 1.86,8.58 1.83,8.6 1.79,8.62 a 5.05,5.05 0 0 0 0.03,0.08 5.05,5.05 0 0 0 0.26,0.43 5.05,5.05 0 0 0 0.29,0.41 5.05,5.05 0 0 0 0.33,0.38 5.05,5.05 0 0 0 0.37,0.35 5.05,5.05 0 0 0 0.4,0.3 5.05,5.05 0 0 0 0.44,0.26 5.05,5.05 0 0 0 0.17,0.09 C 4.1,10.88 4.13,10.84 4.13,10.8 V 8.89 A 0.32,0.32 0 0 0 3.81,8.57 Z m 3.5,0 A 0.32,0.32 0 0 0 5.08,8.89 v 1.9 c 0,0.18 0.14,0.32 0.32,0.32 h 1.9 c 0.18,0 0.32,-0.14 0.32,-0.31 V 8.89 A 0.32,0.32 0 0 0 7.3,8.57 Z m 3.49,0 A 0.32,0.32 0 0 0 8.57,8.89 v 1.9 c 0,0.05 0.03,0.07 0.05,0.11 a 5.05,5.05 0 0 0 0.01,0 5.05,5.05 0 0 0 0.44,-0.26 5.05,5.05 0 0 0 0.4,-0.3 5.05,5.05 0 0 0 0.39,-0.33 5.05,5.05 0 0 0 0.34,-0.37 5.05,5.05 0 0 0 0.3,-0.4 5.05,5.05 0 0 0 0.27,-0.43 5.05,5.05 0 0 0 0.1,-0.2 L 10.8,8.57 Z"
     id="path2"
     inkscape:connector-curvature="0"
     style="fill:#2c89a0" />
</svg>
